icons/agent-24.svg

<svg width="24" height="24" viewBox="0 0 24 24" fill="none" xmlns="http://www.w3.org/2000/svg">
<path d="M22.5 13.9189V13.6406C22.4999 10.886 20.296 8.62882 17.5391 8.55469C17.2146 8.5458 16.9216 8.35419 16.7852 8.05762L16.6357 7.73145C15.5893 5.45713 13.3141 4 10.8105 4C7.35 4.00011 4.57433 6.86134 4.67969 10.3203L4.69922 10.9482C4.71178 11.3606 4.43125 11.7247 4.0293 11.8174C2.54895 12.1586 1.5 13.4769 1.5 14.9961V15.1035C1.50013 16.9793 3.02072 18.4999 4.89648 18.5H6.47266C6.88687 18.5 7.22266 18.8358 7.22266 19.25C7.22266 19.6642 6.88687 20 6.47266 20H4.89648C2.19229 19.9999 0.000133887 17.8077 0 15.1035V14.9961C0 12.9563 1.29526 11.1649 3.18457 10.5029L3.18066 10.3662C3.04952 6.0613 6.50366 2.50011 10.8105 2.5C13.8908 2.5 16.69 4.28775 17.9863 7.08008C21.3603 7.37722 23.9999 10.2068 24 13.6406V13.9189C24 14.3332 23.6642 14.6689 23.25 14.6689C22.8358 14.6689 22.5 14.3332 22.5 13.9189Z" fill="#59636E"/>
<path d="M12.3055 11.7703L15.6802 15.145C15.8208 15.2856 15.8997 15.4764 15.8997 15.6753C15.8997 15.8742 15.8208 16.065 15.6802 16.2056L12.3048 19.581L12.2482 19.6321C11.9536 19.8723 11.5188 19.8555 11.2442 19.581C10.9696 19.3064 10.9528 18.8715 11.1931 18.5769L11.2442 18.5203L14.0892 15.6753L11.2449 12.831C10.952 12.5381 10.952 12.0632 11.2449 11.7703C11.5377 11.4775 12.0126 11.4775 12.3055 11.7703Z" fill="#59636E"/>
<path d="M22.5 19.8001H18C17.5858 19.8001 17.25 19.4643 17.25 19.0501C17.25 18.6359 17.5858 18.3001 18 18.3001H22.5C22.9142 18.3001 23.25 18.6359 23.25 19.0501C23.25 19.4643 22.9142 19.8001 22.5 19.8001Z" fill="#59636E"/>
</svg>

<svg xmlns="http://www.w3.org/2000/svg" width="24" height="24" viewBox="0 0 24 24"><path d="M22.5 13.919v-.278a5.097 5.097 0 0 0-4.961-5.086.858.858 0 0 1-.754-.497l-.149-.327A6.414 6.414 0 0 0 10.81 4a6.133 6.133 0 0 0-6.13 6.32l.019.628a.863.863 0 0 1-.67.869A3.263 3.263 0 0 0 1.5 14.996v.108A3.397 3.397 0 0 0 4.896 18.5h1.577a.75.75 0 0 1 0 1.5H4.896A4.896 4.896 0 0 1 0 15.104v-.108a4.761 4.761 0 0 1 3.185-4.493l-.004-.137A7.633 7.633 0 0 1 10.81 2.5a7.911 7.911 0 0 1 7.176 4.58C21.36 7.377 24 10.207 24 13.641v.278a.75.75 0 0 1-1.5 0Z"/><path d="m12.306 11.77 3.374 3.375a.749.749 0 0 1 0 1.061l-3.375 3.375-.057.051a.751.751 0 0 1-1.004-.051.751.751 0 0 1-.051-1.004l.051-.057 2.845-2.845-2.844-2.844a.75.75 0 1 1 1.061-1.061ZM22.5 19.8H18a.75.75 0 0 1 0-1.5h4.5a.75.75 0 0 1 0 1.5Z"/></svg>
